flags/us-betsy_ross.svg

<svg xmlns="http://www.w3.org/2000/svg" width="512" height="512" fill="none"><path fill="var(--flag-palette-white, #eeeeee)" d="M0 0h512v512H0z"/><path fill="var(--flag-palette-bright-red, #d80027)" d="M0 122.4V55.7h512v66.7zM0 256v-66.8h512V256zm0 133.6v-66.8h512v66.8zM0 512h512v-55.7H0z"/><path fill="var(--flag-palette-blue, #0052b4)" d="M0 0h256v256H0z"/><path fill="var(--flag-palette-white, #eeeeee)" d="m200 154 2 17-15 6 16 4 1 16 9-14 16 3-11-12 8-14-15 7zm-144 0-11 12-15-6 8 14-11 12 17-3 8 14 1-16 16-4-15-6zm173-47-10 13-15-5 9 13-9 13 15-5 10 13v-16l15-5-15-5zm-201 0v16l-16 5 16 5v16l9-13 16 5-10-13 10-13-16 5zm177-48-2 16-16 4 15 6-2 17 11-12 15 6-8-14 11-12-16 3zM52 59l-8 14-17-3 11 12-8 14 15-6 11 12-2-17 15-6-16-4zm134-32-12 11-14-8 7 15-13 11 17-2 6 15 4-16 16-1-14-8zM70 27l3 16-14 9 16 1 4 16 7-15 16 2-12-11 6-15-14 8zm58-15-5 15h-16l13 10-5 15 13-9 13 9-5-15 13-10h-16zm58 217-12-11-14 8 7-15-13-11 17 2 6-15 4 16 16 1-14 8zm-116 0 3-16-14-9 16-1 4-16 7 15 16-2-12 11 6 15-14-8zm58 15-5-15h-16l13-10-5-15 13 9 13-9-5 15 13 10h-16z"/></svg>

<svg width="512" height="512" viewBox="0 0 512 512" fill="none" xmlns="http://www.w3.org/2000/svg">
<rect width="512" height="512" fill="var(--flag-palette-white, #eeeeee)"/>
<path d="M0 122.435V55.6523H512V122.435H0Z" fill="var(--flag-palette-bright-red, #d80027)"/>
<path d="M0 256.001V189.218H512V256.001H0Z" fill="var(--flag-palette-bright-red, #d80027)"/>
<path d="M0 389.565V322.782H512V389.565H0Z" fill="var(--flag-palette-bright-red, #d80027)"/>
<path d="M0 512H512V456.348H0V512Z" fill="var(--flag-palette-bright-red, #d80027)"/>
<rect width="256" height="256" fill="var(--flag-palette-blue, #0052b4)"/>
<path d="M200 154L202 171L187 177L203 181L204 197L213 183L229 186L218 174L226 160L211 167L200 154ZM56 154L45 166L30 160L38 174L27 186L44 183L52 197L53 181L69 177L54 171L56 154ZM229 107L219 120L204 115L213 128L204 141L219 136L229 149V133L244 128L229 123V107ZM28 107V123L12 128L28 133V149L37 136L53 141L43 128L53 115L37 120L28 107ZM205 59L203 75L187 79L202 85L200 102L211 90L226 96L218 82L229 70L213 73L205 59ZM52 59L44 73L27 70L38 82L30 96L45 90L56 102L54 85L69 79L53 75L52 59ZM186 27L174 38L160 30L167 45L154 56L171 54L177 69L181 53L197 52L183 44L186 27ZM70 27L73 43L59 52L75 53L79 69L86 54L102 56L90 45L96 30L82 38L70 27ZM128 12L123 27H107L120 37L115 52L128 43L141 52L136 37L149 27H133L128 12ZM186 229L174 218L160 226L167 211L154 200L171 202L177 187L181 203L197 204L183 212L186 229ZM70 229L73 213L59 204L75 203L79 187L86 202L102 200L90 211L96 226L82 218L70 229ZM128 244L123 229H107L120 219L115 204L128 213L141 204L136 219L149 229H133L128 244Z" fill="var(--flag-palette-white, #eeeeee)"/>
</svg>
